X: 32520
T: Planxty Conneely
R: barndance
M: 4/4
K: Dmajor
(3GFE|F2d2 D3g|fgfe fdAF|G2g2 gfed|cded cAGE|
F2d2 E2e2|D2f2 G2g2|afge Acea|g2fe dAFE|
F2d2D3g|fgag fdAF|G2g2 gaba|gfed cBAG|
FddF GeeG|AfAf BgBg|afge|Acea g2fe|defg|
a2d2Adcd|G2g2 gfga|b2B2 e3d|cdBc A3G|
FAfA GBgB|Adad Begb|afge Acea|g2fe defg|
adcd bagf|gdBd GBef|gBba gfed|caBg ABGA|
FAGB Adce|dfeg fagb|afge Acea|g2fe d2 (3GFE|

